X: 204
T: WALTZ: Ash Grove
C: C: Trad.; S: Various
C: Set Leaders: Alexey, Sophie, Anton
Z: Anton Zille ed. arr.; ceolachan at The Session
N: https://thesession.org/members/26966/sets/99352
R: Waltz
M: 3/4
L: 1/8
Q: 1/4=144
K: Gmaj
|:D2|"G"G2 B2 d2|"Em"B2 G2 E2|"C"AB cB AG|"D"BA GF ED|
"G (Em)"G2 BG AF|"C"G2 E2 G2|"D"D2 E2 F2|"G"G4:||
|:D/E/F|"G"G2 B2 d/e/f|"Em"g2 d2 B2|"C"AG AB cd|"D"e2 c2 A2|
"G"GF GA Bc|"Em"d2 B2 G2|"D"A2 d2 "A"^c2|"D"d3 B cA|
"Em"B2 G2 E2|"C"E2 F2 G2|"Am"AB cB AG|"D"BA GF ED|
"G (Em)"G2 BG "D"AF|"C"G2 E2 G2|"D"D2 E2 F2|"G"G4:||

